X:2320
T:Speiy er y gheaylin 
C:Kelly Pat(rick?)
C:Traditional
O:Isle of Man
Z:Coll. Mona Douglas 
B:Kiaull Vannin #320
L:1/4 
M:4/4 
Q:60 
K:G 
D|G> A G/F/ E/D/|d2 d e|d B G A|E3 D|G>A G/F/ E/D/|d2 d e|d B G A|G3 B/c/| 
d>e d/B/ A/G/|d2 d e|d B G A|E3 D|G>A G/F/ E/D/|d2 d e|d B G A|G3|| 

